packages/kaspersky-hexa-ui-icons/src/iconsSVGs/28x20/FlagGq.svg

<svg width="28" height="20" viewBox="0 0 28 20" fill="none" xmlns="http://www.w3.org/2000/svg">
<g clip-path="url(#clip0_5138_864)">
<path d="M0 2C0 0.895431 0.895431 0 2 0H26C27.1046 0 28 0.895431 28 2V18C28 19.1046 27.1046 20 26 20H2C0.895431 20 0 19.1046 0 18V2Z" fill="white"/>
<mask id="mask0_5138_864" style="mask-type:luminance" maskUnits="userSpaceOnUse" x="0" y="0" width="28" height="20">
<rect width="28" height="20" rx="2" fill="white"/>
</mask>
<g mask="url(#mask0_5138_864)">
<path d="M26 19.5V20H2V19.5H26ZM27.5 18V2C27.5 1.17157 26.8284 0.5 26 0.5H2C1.17157 0.5 0.5 1.17157 0.5 2V18C0.5 18.8284 1.17157 19.5 2 19.5V20C0.895431 20 0 19.1046 0 18V2C2.57702e-07 0.895431 0.895431 0 2 0H26C27.1046 0 28 0.895431 28 2V18C28 19.1046 27.1046 20 26 20V19.5C26.8284 19.5 27.5 18.8284 27.5 18Z" fill="#F5F5F5"/>
<path fill-rule="evenodd" clip-rule="evenodd" d="M0 20H28V13.3333H0V20Z" fill="#EC3938"/>
<path fill-rule="evenodd" clip-rule="evenodd" d="M0 6.66667H28V0H0V6.66667Z" fill="#51B422"/>
<path fill-rule="evenodd" clip-rule="evenodd" d="M13.6068 11.7151C13.6367 11.684 13.6535 11.6426 13.6537 11.5995L13.665 9.62741C13.6659 9.46527 13.5347 9.33333 13.3726 9.33333C13.1121 9.33333 12.9816 9.01837 13.1658 8.83417L13.7643 8.2357C13.8945 8.10553 14.1055 8.10553 14.2357 8.2357L14.8333 8.83333C15.0179 9.01785 14.8872 9.33333 14.6262 9.33333C14.4645 9.33333 14.3333 9.46447 14.3333 9.62623V11.5976C14.3333 11.6418 14.3509 11.6842 14.3822 11.7155C14.4871 11.8205 14.4128 12 14.2643 12H13.7283C13.5799 12 13.5041 11.8221 13.6068 11.7151Z" fill="#159940"/>
<path fill-rule="evenodd" clip-rule="evenodd" d="M0 0L9.33333 10L0 20V0Z" fill="#258DE7"/>
</g>
</g>
<defs>
<clipPath id="clip0_5138_864">
<rect width="28" height="20" fill="white"/>
</clipPath>
</defs>
</svg>

<svg xmlns="http://www.w3.org/2000/svg" width="28" height="20" fill="none" viewBox="0 0 28 20"><g clip-path="url(#a)"><path fill="#fff" d="M0 2C0 .8954.8954 0 2 0h24c1.1046 0 2 .8954 2 2v16c0 1.1046-.8954 2-2 2H2c-1.1046 0-2-.8954-2-2z"/><mask id="b" width="28" height="20" x="0" y="0" maskUnits="userSpaceOnUse" style="mask-type:luminance"><rect width="28" height="20" fill="#fff" rx="2"/></mask><g mask="url(#b)"><path fill="#f5f5f5" d="M26 19.5v.5H2v-.5zm1.5-1.5V2c0-.8284-.6716-1.5-1.5-1.5H2C1.1716.5.5 1.1716.5 2v16c0 .8284.6716 1.5 1.5 1.5v.5c-1.1046 0-2-.8954-2-2V2C0 .8954.8954 0 2 0h24c1.1046 0 2 .8954 2 2v16c0 1.1046-.8954 2-2 2v-.5c.8284 0 1.5-.6716 1.5-1.5"/><path fill="#ec3938" fill-rule="evenodd" d="M0 20h28v-6.6667H0z" clip-rule="evenodd"/><path fill="#51b422" fill-rule="evenodd" d="M0 6.6667h28V0H0z" clip-rule="evenodd"/><path fill="#159940" fill-rule="evenodd" d="M13.6068 11.7151a.168.168 0 0 0 .0469-.1156l.0113-1.972a.2925.2925 0 0 0-.2924-.2942c-.2605 0-.391-.315-.2068-.4991l.5985-.5985a.3333.3333 0 0 1 .4714 0l.5976.5976c.1846.1845.0539.5-.2071.5a.293.293 0 0 0-.2929.293v1.9713c0 .0442.0176.0866.0489.1179.1049.105.0306.2845-.1179.2845h-.536c-.1484 0-.2242-.1779-.1215-.2849" clip-rule="evenodd"/><path fill="#258de7" fill-rule="evenodd" d="m0 0 9.3333 10L0 20z" clip-rule="evenodd"/></g></g><defs><clipPath id="a"><path fill="#fff" d="M0 0h28v20H0z"/></clipPath></defs></svg>
